X:1
T:Choix de chansons. Tome 1
T:Le Portrait reconnu
T:Le Portrait reconnu
T:Jean-Benjamin de La Borde
C:Jean-Benjamin de La Borde
Z:M. Dorat
%%score 1 { 2 | ( 3 4 ) }
L:1/8
Q:1/4=142
M:2/2
K:Bb
V:1 treble nm="Ténor" snm="T."
V:2 treble nm="Clavecin" snm="Cla."
V:3 bass 
V:4 bass 
V:1
|:"^Andantino" d2 c d | e2 e2 (de) (dc) |{/c} B2 B2 z d e f | g2 f2 e2 d2 |{/d} c4 d2 c d | %5
w: Dans un des|Bos- quets de * sa *|Mè- re, L'aî- né des|a- mours as- sem-|bla tout le peu-|
w: Son front an-|non- ce une * Dé- *|es- se, Son cœur n'en|a pas la fier-|té; Sa beau- té|
w: À ces mots|on cause, on * mur- *|mu- re, Sur qui leur|choix est il tom-|bé? Cha- cun de-|
w: Que fait l'é-|clat du rang * su- *|prê- me, Re- prit son|frère a- vec ar-|deur? Ah! sans lui|
w: L'Hy- men lui|tres- se une * cou- *|ron- ne Les plai- sirs|por- tent ses cou-|leurs; L'es- saim des|
 e2 e2 (de) (dc) | (cA) B z G2 A B | (cf) (db) (af) (g=e) |{/g} f2 z c e3 d |{/d} c2 B2 | A2 B2 | %11
w: ple aîlé de * Cy- *|thè- * re, que de fri-|pons * se * trou- * vaient *|là! Psy- ché, dit­|il, m'a-|vait sû|
w: ra- vit, in- * té- *|res- * se; Sa grâ- ce|a- * joute à sa * beau- *|té, Dans ses yeux|l'Es- prit|é- tin-|
w: vine à l'a- * ven- *|tu- * re: L'un nom- me|Flo- re, et * l'au- tre Hé- *|bé. Eh! quoi? leur|dit, a-|vec fi-|
w: la Nym- phe * que *|j'ai- * me N'en eut pas|moins * sé- * duit * mon *|cœur. On la ver-|rait sim-|ple Ber-|
w: Jeux, qui l'en- * vi- *|ron- * ne, Lui pré- sente|un * scep- * tre * de *|fleurs. Tout à coup|plein d'im-|pa- ti-|
 c2 F c e2 d2 |{/d} c2 B2 A3 B | !fermata!f4 c2{/c} B A | (BF) (dB) | (ec) (BA) |{/c} B2 F z g3 g | %17
w: plai- re; un au- tre|me tient sous ses|lois; Par le por-|trait * que *|j'en * vais *|fai- re, de- vi-|
w: cel- le; Rien n'est si|doux que ses ac-|cents; Et sa bou-|che * est *|la * fleur *|nou- velle É- close|
w: nes- se, Le plus ma-|lin des pe- tits|Dieux, Quand l'a- mour|veut * u- *|ne * Maî- *|tres- se, Va­­¬t¬­il la|
w: gè- re, Ré- gner en-|core par les at-|traits; Son em- pi-|re, * c'est- _|l'art * de *|plai- re; Elle au-|
w: en- ce, Le chœur des|A- mours s'é- cri-|a: Ah! c'est la|Nym- * phe *|de * la *|Fran- ce, Nous con-|
 f b (Be) d2{/d} c2 | B4{/d} c2 B A | (BF) (dB) (ec) (BA) |{/c} B2 F z g3 g | f b (Be) d2{/d} c2 | %22
w: nez l'ob- jet * de mon|choix. Par le por-|trait * que * j'en * vais *|fai- re, de- vi-|nez l'ob- jet * de mon|
w: au souf- fle * du prin-|temps. Et sa bou-|che * est * la * fleur *|nou- velle É- close|au souf- fle * du prin-|
w: cher- cher dans * les Ci-|eux? Quand l'a- mour|veut * u- * ne * Maî- *|tres- se, Va­¬t¬­il la|cher- cher dans * les Ci-|
w: ra tou- jours * des su-|jets. Son em- pi-|re * c'est * l'art * de *|plai- re; Elle au-|ra tou- jours * des su-|
w: nais- sions ce * Por- trait|là. Ah! c'est la|Nym- * phe * de * la *|Fran- ce, Nous con-|nais- sions ce * Por- trait|
 B4 :| %23
w: choix.|
w: temps.|
w: eux?|
w: jets.|
w: là.|
V:2
|: [Fd]2 [Ec][Fd] | [Ge]2 [Ge]2 [Fd][Ge] [Fd][Ec] | [DB]4 z [DB] [Ec][Fd] | %3
 [Ge]2 [Fd]2 [Ec]2 [DB]2 | [CA]4 [Fd]2 [Ec][Fd] | [Ge]2 [Ge]2 [Fd][Ge] [Fd][Ec] | %6
 [Ec]2 [DB]2 z G C=E | z [CF] z [DF] z F z [=EGB] | [FAc]2 z2 z [ca] z [db] | z [ec'] z [db] | %10
 z [ca] z [Bg] | z [Acf] z [Acf] z/ a/ c/a/ z/ b/ d/b/ | %12
 z/ c'/ e/c'/ z/ b/ d/b/ z/ a/ c/a/ z/ g/ B/g/ | !fermata![Af]4 z [CF] z [CF] | z [DF] z [DF] | %15
 z [CF] z [CF] | [DF]4 z B GB | z [FB] z [GB] B2 [Ace]2 | %18
 [Bdf]4 z/ F/C/[I:staff +1]A,/[I:staff -1] z/ F/C/[I:staff +1]A,/ | %19
[I:staff -1] z/ F/D/[I:staff +1]B,/[I:staff -1] z/ F/D/[I:staff +1]B,/[I:staff -1] z/ F/C/[I:staff +1]A,/[I:staff -1] z/ F/C/[I:staff +1]A,/ | %20
[I:staff -1] z2 [DFB]2 z[I:staff +1] B, G,B, | %21
[I:staff -1] z[I:staff +1] [F,B,][I:staff -1] z[I:staff +1] [G,B,] B,2[I:staff -1] [CE]2 | [DF]4 :| %23
V:3
|: B,4 | B,4 B,2 F,2 | G,4 D,4 | E,2 F,2 G,2 E,2 | F,4 B,4 | B,4 B,4 | B,4 B,4 | A,2 B,2 C2 C,2 | %8
 F,2 z2[I:staff -1] F2 F2 | F2 F2 | F2 F2 | F2 F2 F2 F2 | F2[I:staff +1] F,2 F,2 F,2 | %13
[I:staff -1] !fermata!F4[I:staff +1] E, z C, z | x z F, z | E, z C, z | D,4[I:staff -1] E4 | %17
 D2 E2 F2[I:staff +1] F,2 | B,4 E,2 C,2 | D,2 F,2 E,2 C,2 | D,4 E,4 | D,2 E,2 F,2 F,,2 | B,,4 :| %23
V:4
|: x4 | x8 | x8 | x8 | x8 | x8 | x8 | x8 | x8 | x4 | x4 | x4 F,2 F,2 | F,2[I:staff -1] F2 F2 F2 | %13
[I:staff +1] F,4 x A, x A, | D, B, x B, | x A, x A, | B,4 x4 | x8 | x8 | x8 | x8 | x6 A,2 | B,4 :| %23

